X:1
T:Lord Rendal
M:6/4
L:1/8
K:G
 B B/2B/2 BB BB G2 dd dd| d4 B B/2B/2 BBB B G2| BBA G A2 z d g3 g|\
 e2 g2 f d3 z2 d2| g3 g e2 g2 f d3-| d2 z2 B2 B2 B2 B4| BB B2 c2 A2 G4|\
 BB c2 A2 F2 G6|
